src/symbolic/devices/media-floppy-symbolic.svg

<svg xmlns="http://www.w3.org/2000/svg" width="16" height="16"><path d="M2 1c-.55 0-1 .45-1 1v11l2 2h11c.55 0 1-.45 1-1V2c0-.55-.45-1-1-1zm1 2h10v10h-1V8H4v5H3zm5 6h2v4H8z" fill="#444"/></svg>

<svg xmlns="http://www.w3.org/2000/svg" width="16" height="16" version="1.1">
 <path style="fill:#444444" d="M 2,1 C 1.45,1 1,1.45 1,2 V 13 L 3,15 H 14 C 14.55,15 15,14.55 15,14 V 2 C 15,1.45 14.55,1 14,1 Z M 3,3 H 13 V 13 H 12 V 8 H 4 V 13 H 3 Z M 8,9 H 10 V 13 H 8 Z"/>
</svg>
